X: 144116
T: TOM HOWARDS HORNPIPE
R: Hornpipe.
%R: hornpipe
B: James Kerr "Merry Melodies" v.1 p.44 s.1 #16
Z: 2016 John Chambers <jc:trillian.mit.edu>
M: C
L: 1/8
K: A
|:\
A>Bc>d e>ca>e | f>ga>f e>ca>e |\
f>ga>f e>cA>c | B>AG>F E2E2 |\
A>Bc>d e>ca>e | f>ga>f e>ca>e |\
f>ag>f e>dc>B | A2c2A2 H:|
|:\
B>cd>e d>BG>B | A>ce>g a2e>g |\
a>fd>f e>cA>c | B>AG>F E2F>A |\
B>cd>e d>BG>B | A>ce>g a2b>a |\
g>bg>e f>af>^d | e2g2"_D.C."e2 :|

%%sep 1 1 500
%%sep 1 1 500

